X:25
T:Tom's Birthday Reel
M:4/4
L:1/8
R:Reel
Q:475
N:Tom is a flute player who loves speed and rolls.
K:Gmix
~G2FA ~G2~F2|~G2Bd fedf|~F2~F2 FAcF|Ac~F2 FAcA|
Gg~g2 ~a2fg|fdcA ~F2DF|GFDF CFAB|~c2~d2 fdcA:|
|:~G2g2 ~G2g2|gfdc AGFD|~F2f2~F2f2|FGAc defa|
~g2G2~g2G2|GABc dfga|~f2F2fdcB|AGFD BAGF:||
